static/images/mobile/copyright/wikipedia-wordmark-qu.svg

<svg width="120" height="18" viewBox="0 0 120 18" fill="none" xmlns="http://www.w3.org/2000/svg">
<path fill-rule="evenodd" clip-rule="evenodd" d="M20.0345 0.00448947C20.0345 0.00448947 16.8008 -0.00561184 15.3611 0.00448947L15.2894 0.0559726V0.556736C15.2894 0.61832 15.3156 0.666782 15.3681 0.704135C15.4216 0.743503 15.4762 0.763706 15.5347 0.763706L15.7659 0.788944C16.3545 0.813175 16.6251 0.967655 16.7058 1.06458C16.8462 1.23621 16.9158 1.42197 16.5756 2.16404L14.5423 6.21936L12.7038 2.45783C12.1001 1.25537 11.9517 0.883853 12.8603 0.813175L13.2197 0.761692C13.3944 0.761692 13.4802 0.700107 13.4802 0.579959V0.0539585L13.3489 0.0105625C13.3489 0.0105625 9.92743 0.010532 8.3898 0.0125766L8.31812 0.0640598V0.592075C8.31812 0.710208 8.44128 0.740482 8.67957 0.771793C9.46841 0.875644 9.5105 0.959568 10.1829 2.30017C10.2359 2.40595 10.2929 2.51953 10.3545 2.64157C10.4155 2.76255 10.5335 3.00095 10.6392 3.21503C10.7523 3.44397 10.8512 3.64511 10.8512 3.64511L12.7674 7.41092L12.9649 7.84851C13.058 8.05454 13.1806 8.32584 13.3256 8.64609L10.5382 14.2055L10.3797 14.1641C10.3797 14.1641 6.05557 5.04642 4.80368 1.99643C4.67343 1.68042 4.61487 1.4462 4.61487 1.30182C4.61487 0.991886 4.89453 0.824283 5.45386 0.801059L6.10605 0.773807C6.27869 0.773807 6.36655 0.707157 6.36655 0.568851V0.0680881L6.30798 0.016605C6.30798 0.016605 1.12872 0.0105625 0.0585632 0.016605L0 0.0680881V0.594089C0 0.688999 0.120148 0.747562 0.36145 0.773807C1.01868 0.809146 1.45081 0.914127 1.65878 1.08881C1.86575 1.26548 2.08484 1.71173 2.37558 2.40732C3.189 4.36118 4.47577 7.10822 5.75357 9.83609L5.75394 9.83692L5.75485 9.83884C6.94598 12.3817 8.12921 14.9077 8.91376 16.7588C9.3822 17.8068 9.97079 17.9693 10.6856 16.7265C11.3991 15.403 12.8166 12.5128 13.8892 10.3019L13.6559 11.516C13.6357 11.5826 13.8456 11.8118 13.9113 11.8319L14.0677 11.733C14.1324 11.7532 14.2727 11.6916 14.2929 11.627L14.3202 11.3605L14.1089 10.3729C15.1072 12.5691 16.4029 15.4001 17.04 16.7123C17.5701 17.8058 18.1728 17.9128 18.7856 16.7457C20.3869 13.1858 25.0664 2.47498 25.0664 2.47498C25.2693 1.94898 25.552 1.54413 25.9144 1.25034C26.2759 0.958561 26.8342 0.795017 27.5873 0.761692C27.7408 0.761692 27.8185 0.693027 27.8185 0.556736V0.0539585L27.76 0.00247531H22.0113L21.9386 0.0539585V0.556736C21.9386 0.616306 21.9659 0.665775 22.0184 0.703128C22.0719 0.742496 22.1274 0.763706 22.186 0.763706L22.6635 0.787937C23.2531 0.812168 23.4137 0.929294 23.6418 1.12717C23.869 1.33011 23.8962 1.67539 23.7196 2.16202L18.6312 14.2378L18.4353 14.1843L15.205 7.57508L15.2793 7.42002L17.9224 2.47699C18.2303 1.95502 18.5272 1.4896 18.6776 1.27256C18.9532 0.875766 19.1077 0.801059 19.8608 0.76572C20.0143 0.76572 20.092 0.697086 20.092 0.55875V0.0579868L20.0345 0.00448947ZM29.6693 15.8582C29.6693 16.4357 29.9183 16.777 30.7153 16.8557L31.2383 16.9092C31.313 16.9092 31.3877 16.9607 31.3877 17.0657V17.617L31.3628 17.6705C31.3628 17.6705 29.47 17.617 28.698 17.617C28.0006 17.617 26.0581 17.6705 26.0581 17.6705L26.0083 17.617V17.0657C26.0083 16.9607 26.083 16.9092 26.1826 16.9092L26.6807 16.8557C27.5026 16.777 27.7516 16.357 27.7516 15.8582V7.11713C27.7516 6.54065 27.4518 6.38114 26.6807 6.30442L26.1826 6.24988C26.083 6.24988 26.0083 6.22565 26.0083 6.1449V5.54013L26.0332 5.48764C26.0332 5.48764 28.0007 5.54013 28.7727 5.54013C29.4451 5.54013 31.3628 5.48764 31.3628 5.48764L31.3877 5.54013V6.11765C31.3877 6.19638 31.3379 6.24887 31.2383 6.24887L30.7153 6.3024C29.9432 6.38013 29.6693 6.59113 29.6693 7.11713V15.8582ZM38.0651 16.8557C37.3429 16.7245 37.0191 16.4357 37.0191 15.8582V11.9703C37.567 11.9703 37.9655 12.0995 38.3391 12.6255L41.1035 16.249C41.4522 16.6689 41.4771 16.9557 41.4771 17.2979V17.6129L41.502 17.6392C41.502 17.6392 42.3986 17.6129 43.0212 17.6129C43.7185 17.6129 45.0385 17.6392 45.0385 17.6392L45.1132 17.6129V17.0617C45.1132 16.9829 45.0135 16.9305 44.9388 16.9042L44.8143 16.879C44.3162 16.775 43.7185 16.6165 43.4196 16.25L39.659 11.4725C39.5345 11.3151 39.4349 11.1848 39.4349 11.0273C39.4349 10.8163 39.5843 10.5286 40.0077 10.0551L42.1495 7.45737C43.0443 6.3833 43.7158 6.32886 44.6839 6.25034L44.6898 6.24988C44.8143 6.24988 44.889 6.19739 44.889 6.11866V5.51389L44.8143 5.48865C44.8143 5.48865 43.7185 5.54114 43.071 5.54114C42.3488 5.54114 40.3315 5.48865 40.3315 5.48865L40.3065 5.51389V6.11866C40.3065 6.19739 40.3564 6.22464 40.456 6.24988C40.9541 6.32965 41.1782 6.56488 41.1782 6.77588C41.1782 7.27564 40.4062 8.24485 39.41 9.40085C38.3141 10.6356 37.841 11.0808 37.0191 11.0808V7.11713C37.0191 6.59113 37.2931 6.45887 38.0651 6.3024L38.3391 6.24887C38.4387 6.22263 38.4885 6.19638 38.4885 6.11765V5.54013L38.4636 5.48764C38.4636 5.48764 36.8955 5.54013 36.1972 5.54013C35.4252 5.54013 33.383 5.48764 33.383 5.48764L33.3581 5.54013V6.1449C33.3581 6.22565 33.4328 6.24988 33.5324 6.24988L34.0305 6.30442C34.8275 6.38114 35.1014 6.54065 35.1014 7.11713V15.8582C35.1014 16.357 34.7777 16.777 34.0305 16.8557L33.5324 16.9092C33.4328 16.9092 33.3581 16.9607 33.3581 17.0657V17.617L33.4079 17.6705C33.4079 17.6705 35.4501 17.617 36.1474 17.617C36.8946 17.617 38.4636 17.6705 38.4636 17.6705L38.4885 17.617V17.0657C38.4885 16.9607 38.4138 16.9345 38.3391 16.9092L38.0651 16.8557ZM50.4457 15.8582C50.4457 16.4357 50.6948 16.777 51.4917 16.8557L52.0147 16.9092C52.0894 16.9092 52.1642 16.9607 52.1642 17.0657V17.617L52.1393 17.6705C52.1393 17.6705 50.2465 17.617 49.4744 17.617C48.7771 17.617 46.8345 17.6705 46.8345 17.6705L46.7847 17.617V17.0657C46.7847 16.9607 46.8594 16.9092 46.959 16.9092L47.4571 16.8557C48.279 16.777 48.528 16.357 48.528 15.8582V7.11713C48.528 6.54065 48.2292 6.38114 47.4571 6.30442L46.959 6.24988C46.8594 6.24988 46.7847 6.22565 46.7847 6.1449V5.54013L46.8096 5.48764C46.8096 5.48764 48.7771 5.54013 49.5491 5.54013C50.2216 5.54013 52.1393 5.48764 52.1393 5.48764L52.1642 5.54013V6.11765C52.1642 6.19638 52.1143 6.24887 52.0147 6.24887L51.4917 6.3024C50.7197 6.38013 50.4457 6.59113 50.4457 7.11713V15.8582ZM54.3328 6.24988C55.5033 6.32865 55.8271 6.35489 55.8271 7.16861L55.829 15.9875C55.829 16.4862 55.5799 16.7225 54.8079 16.8275L54.2849 16.9062C54.1852 16.9325 54.1354 16.9587 54.1354 17.0637V17.6149L54.1603 17.6675C54.1603 17.6675 56.0282 17.6149 56.7255 17.6149C57.4976 17.6149 59.49 17.6675 59.49 17.6675L59.5139 17.6149V17.0637C59.5139 16.9597 59.4392 16.9325 59.3396 16.9062L58.8405 16.8275C58.0426 16.6972 57.7438 16.565 57.7438 15.9875V12.472C58.193 12.681 58.6911 12.7346 59.3137 12.7346C62.8483 12.7346 63.5705 10.2681 63.5705 8.69211C63.5705 7.32511 62.923 5.48865 59.3884 5.48865C58.8956 5.48865 58.3815 5.50367 57.9031 5.51764C57.4869 5.52979 57.0978 5.54114 56.7734 5.54114C56.3533 5.54114 55.6805 5.52338 55.1175 5.50852H55.1162L55.1141 5.50843C54.7106 5.49778 54.3641 5.48865 54.2082 5.48865L54.1584 5.5149V6.11866C54.1584 6.17215 54.1833 6.24988 54.3328 6.24988ZM59.3635 11.9733C58.8654 11.9733 58.2428 11.9481 57.7447 11.7371L57.7438 7.16962C57.7438 6.48716 58.0426 6.25089 59.239 6.25089C60.6069 6.25089 61.5782 6.74964 61.5782 9.00711C61.5782 11.0263 60.8588 11.9733 59.3635 11.9733ZM71.2393 16.8991L71.8122 16.8456C72.5602 16.7669 72.8093 16.5306 72.8093 15.7179V7.05555C72.8093 6.38703 72.6412 6.3714 71.8687 6.29956L71.8122 6.29431L71.2661 6.23978C71.1665 6.23978 71.0899 6.18729 71.0899 6.10855V5.53104L71.1139 5.47855C71.1139 5.47855 73.3064 5.53104 73.7557 5.53104C73.9016 5.53104 74.2101 5.526 74.5857 5.51908C74.7688 5.51569 74.9678 5.51184 75.1718 5.50791L75.175 5.50782C75.9037 5.49378 76.6942 5.47855 77.0431 5.47855C81.2022 5.47855 83.2454 8.2085 83.2454 11.6997C83.2454 16.2944 80.1562 17.6574 77.3928 17.6574C76.1648 17.6574 75.3629 17.6374 74.7476 17.6221C74.3645 17.6126 74.0538 17.6049 73.7576 17.6049C73.0095 17.6049 71.1167 17.6574 71.1167 17.6574L71.0918 17.6049V17.0536C71.0899 16.9779 71.1407 16.8991 71.2393 16.8991ZM76.7941 16.8991C79.5327 16.8991 81.0787 15.8239 81.0787 12.1469C81.0787 9.418 80.5049 6.23978 76.3209 6.23978C75.3496 6.23978 74.727 6.39728 74.727 7.05555V15.7179C74.727 16.4509 74.9004 16.8991 76.7941 16.8991ZM69.0975 16.8436C68.3005 16.7649 68.0515 16.4236 68.0515 15.8461L68.0496 7.10501C68.0496 6.57901 68.3235 6.36801 69.0956 6.29029L69.6186 6.23676C69.7172 6.23676 69.768 6.18427 69.768 6.10553V5.52802L69.744 5.47553C69.744 5.47553 67.8254 5.52802 67.153 5.52802C66.3828 5.52802 64.4154 5.47553 64.4154 5.47553L64.3905 5.52802V6.13279C64.3905 6.21353 64.4652 6.23777 64.5648 6.23777L65.0639 6.2923C65.835 6.36902 66.1348 6.52854 66.1348 7.10501V15.8461C66.1348 16.3449 65.8848 16.7649 65.0639 16.8436L64.5648 16.8971C64.4652 16.8971 64.3905 16.9486 64.3905 17.0536V17.6049L64.4413 17.6584C64.4413 17.6584 66.3829 17.6049 67.0811 17.6049C67.8522 17.6049 69.745 17.6584 69.745 17.6584L69.7699 17.6049V17.0536C69.7699 16.9486 69.6952 16.8971 69.6205 16.8971L69.0975 16.8436ZM106.93 16.9092L107.691 16.9627C107.796 16.9627 107.901 17.0415 107.901 17.1717V17.6705L107.848 17.724C107.848 17.724 104.987 17.6705 104.357 17.6705C103.674 17.6705 101.994 17.724 101.994 17.724L101.94 17.6705V17.1717C101.94 17.0415 102.019 16.9627 102.151 16.9627C103.307 16.884 103.962 16.673 104.697 14.993L110.523 1.3422C110.811 0.659702 111.022 0.396213 111.416 0.396213C111.783 0.396213 111.915 0.659702 112.124 1.1847L117.505 15.412C117.874 16.4367 118.399 16.8295 119.449 16.9345L119.738 16.9597C119.869 16.9597 120 17.0385 120 17.1707V17.6685L119.921 17.721C119.921 17.721 117.9 17.6685 116.876 17.6685C115.958 17.6685 113.384 17.721 113.384 17.721L113.359 17.6685V17.1707C113.359 17.0385 113.411 16.9597 113.545 16.9597L114.28 16.9072C115.276 16.8295 115.646 16.5125 115.382 15.7785L113.781 11.3413H108.321C107.691 11.3413 107.533 11.4463 107.403 11.7865L105.88 15.5937C105.617 16.252 105.958 16.8305 106.93 16.9092ZM113.361 10.2398L110.815 3.23218H110.762L108.137 9.89957C108.032 10.1631 108.215 10.2408 108.792 10.2408H113.361V10.2398ZM87.9047 7.96454V15.433C87.8874 16.1764 88.0199 16.6451 88.3023 16.8391C88.5846 17.0331 89.1204 17.1293 89.9098 17.1278C89.9789 17.1953 90.0135 17.2977 90.0135 17.4351C90.0135 17.5725 89.9789 17.6749 89.9098 17.7424C89.3538 17.7327 88.8583 17.7242 88.4232 17.7168C87.9883 17.7094 87.4927 17.7055 86.9367 17.7052C86.3682 17.7055 85.8631 17.7094 85.4214 17.7168C84.9796 17.7242 84.4861 17.7327 83.9406 17.7424C83.8715 17.6749 83.8369 17.5725 83.8369 17.4351C83.8369 17.2977 83.8715 17.1953 83.9406 17.1278C84.7299 17.1293 85.2658 17.0331 85.5481 16.8391C85.8304 16.6451 85.963 16.1764 85.9457 15.433V7.96454C85.963 7.2211 85.8304 6.75241 85.5481 6.55838C85.2658 6.36438 84.7299 6.26816 83.9406 6.26969C83.8715 6.20218 83.8369 6.09977 83.8369 5.96238C83.8369 5.82505 83.8715 5.72263 83.9406 5.65509C84.4966 5.6648 84.9921 5.67334 85.4271 5.6807C85.8622 5.68808 86.3577 5.69199 86.9137 5.69233C87.4821 5.69199 87.9873 5.68808 88.429 5.6807C88.8708 5.67334 89.3643 5.6648 89.9098 5.65509C89.9789 5.72263 90.0135 5.82505 90.0135 5.96238C90.0135 6.09977 89.9789 6.20218 89.9098 6.26969C89.1204 6.26816 88.5846 6.36438 88.3023 6.55838C88.0199 6.75241 87.8874 7.2211 87.9047 7.96454ZM98.1118 12.7194V15.433C98.0897 16.1764 98.2318 16.6451 98.5381 16.8391C98.8445 17.0331 99.4475 17.1293 100.347 17.1278C100.416 17.1953 100.451 17.2977 100.451 17.4351C100.451 17.5208 100.438 17.593 100.411 17.6516C100.394 17.6868 100.373 17.717 100.347 17.7424C99.7875 17.7327 99.2651 17.7242 98.7802 17.7168C98.2952 17.7094 97.7497 17.7055 97.1438 17.7052C96.7328 17.7054 96.3498 17.7072 95.9947 17.7105C95.8156 17.7123 95.6435 17.7143 95.4786 17.7168C94.987 17.7242 94.4665 17.7327 93.9172 17.7424C93.8481 17.6749 93.8135 17.5725 93.8135 17.4351C93.8135 17.2977 93.8481 17.1953 93.9172 17.1278C94.817 17.1293 95.42 17.0331 95.7264 16.8391C96.0327 16.6451 96.1749 16.1764 96.1528 15.433V12.8814C96.1578 12.5623 96.1276 12.3368 96.062 12.2051C95.9965 12.0734 95.8654 11.8828 95.6688 11.6335L92.6427 7.51755C92.2038 6.91172 91.8479 6.55149 91.575 6.43686C91.3021 6.32224 90.9382 6.26651 90.4832 6.26969C90.4131 6.20218 90.3747 6.09977 90.368 5.96238C90.3612 5.82505 90.3919 5.72263 90.4601 5.65509C90.8044 5.6648 91.1703 5.67334 91.5577 5.6807C91.9452 5.68808 92.3629 5.69199 92.8109 5.69233C93.2661 5.69199 93.704 5.68808 94.1246 5.6807C94.5452 5.67334 94.9831 5.6648 95.4383 5.65509C95.5074 5.72263 95.542 5.82505 95.542 5.96238C95.542 6.09977 95.5074 6.20218 95.4383 6.26969C94.7946 6.27405 94.3869 6.29981 94.2151 6.34699C94.0433 6.39417 94.0976 6.60434 94.3781 6.97745L97.2867 11.1121C97.3834 11.2638 97.4666 11.3468 97.5362 11.3612C97.6058 11.3755 97.6901 11.3049 97.7891 11.1493L100.532 6.97745C100.775 6.6084 100.787 6.39942 100.566 6.35047C100.345 6.30158 99.9724 6.27463 99.4485 6.26969C99.3794 6.20298 99.3448 6.10364 99.3448 5.97168C99.3448 5.83979 99.3794 5.74045 99.4485 5.67371C99.9061 5.68265 100.305 5.68808 100.644 5.69001C100.984 5.69196 101.284 5.69275 101.546 5.69233C101.814 5.69275 102.113 5.69196 102.442 5.69001C102.771 5.68808 103.11 5.68265 103.459 5.67371C103.528 5.74045 103.562 5.83979 103.562 5.97168C103.562 6.10364 103.528 6.20298 103.459 6.26969C102.965 6.28376 102.583 6.32785 102.314 6.40192C102.045 6.47605 101.759 6.73618 101.458 7.18232L98.5151 11.4846C98.2946 11.7871 98.1692 11.9852 98.1389 12.0789C98.1085 12.1726 98.0995 12.3861 98.1118 12.7194Z" fill="black"/>
</svg>

<svg xmlns="http://www.w3.org/2000/svg" width="120" height="18" fill="none"><path fill="#000" fill-rule="evenodd" d="M20.035.004s-3.234-.01-4.674 0l-.072.052v.5c0 .062.027.11.08.148.053.04.107.06.166.06l.23.025c.59.024.86.179.94.276.141.171.21.357-.13 1.099l-2.033 4.055-1.838-3.761C12.1 1.255 11.952.884 12.86.813l.36-.051c.174 0 .26-.062.26-.182V.054L13.35.011s-3.422 0-4.96.002l-.07.051v.528c0 .118.122.148.36.18.79.104.832.188 1.504 1.528l.171.342c.062.12.18.359.285.573l.212.43 1.916 3.766.198.438.36.797-2.787 5.56-.158-.042S6.056 5.046 4.804 1.996c-.13-.316-.19-.55-.19-.694 0-.31.28-.478.84-.5l.652-.028c.173 0 .26-.067.26-.205v-.5L6.309.016S1.128.01.058.017L0 .068v.526c0 .095.12.154.361.18.658.035 1.09.14 1.298.315.207.176.426.623.717 1.318.813 1.954 2.1 4.701 3.378 7.43v.002c1.192 2.543 2.375 5.069 3.16 6.92.468 1.048 1.057 1.21 1.772-.032.713-1.324 2.13-4.214 3.203-6.425l-.233 1.214c-.02.067.19.296.255.316l.157-.099c.064.02.205-.041.225-.106l.027-.267-.211-.987c.998 2.196 2.294 5.027 2.931 6.34.53 1.093 1.133 1.2 1.746.033 1.6-3.56 6.28-14.271 6.28-14.271.203-.526.486-.93.848-1.225.362-.291.92-.455 1.673-.488.154 0 .232-.069.232-.205V.054L27.76.002h-5.749l-.072.052v.503c0 .06.027.109.08.146a.28.28 0 0 0 .167.06l.477.025c.59.024.75.141.979.34.227.202.254.547.078 1.034L18.63 14.238l-.196-.054-3.23-6.609.074-.155 2.643-4.943c.308-.522.605-.987.756-1.204.275-.397.43-.472 1.183-.507.153 0 .231-.069.231-.207V.058l-.057-.054Zm9.634 15.854c0 .578.25.919 1.046.998l.523.053c.075 0 .15.052.15.157v.551l-.025.053s-1.893-.053-2.665-.053c-.697 0-2.64.053-2.64.053l-.05-.053v-.551c0-.105.075-.157.175-.157l.498-.053c.822-.079 1.07-.499 1.07-.998v-8.74c0-.577-.3-.737-1.07-.814l-.498-.054c-.1 0-.175-.024-.175-.105V5.54l.025-.052s1.968.052 2.74.052c.672 0 2.59-.052 2.59-.052l.025.052v.578c0 .078-.05.13-.15.13l-.523.054c-.772.078-1.046.29-1.046.815v8.741Zm8.396.998c-.722-.132-1.046-.42-1.046-.998V11.97c.548 0 .947.13 1.32.655l2.764 3.624c.35.42.374.707.374 1.049v.315l.025.026s.897-.026 1.52-.026c.697 0 2.017.026 2.017.026l.074-.026v-.551c0-.08-.1-.132-.174-.158l-.125-.025c-.498-.104-1.096-.263-1.394-.629l-3.761-4.777c-.124-.158-.224-.288-.224-.446 0-.21.15-.498.573-.972l2.142-2.598c.894-1.074 1.566-1.128 2.534-1.207h.006c.124 0 .199-.053.199-.131v-.605l-.075-.025s-1.096.052-1.743.052c-.722 0-2.74-.052-2.74-.052l-.025.025v.605c0 .078.05.106.15.13.498.08.722.316.722.527 0 .5-.772 1.469-1.768 2.625-1.096 1.235-1.569 1.68-2.39 1.68V7.117c0-.526.273-.658 1.045-.815l.274-.053c.1-.026.15-.053.15-.131V5.54l-.025-.052s-1.569.052-2.267.052c-.772 0-2.814-.052-2.814-.052l-.025.052v.605c0 .08.075.105.174.105l.499.054c.797.077 1.07.237 1.07.813v8.741c0 .499-.323.919-1.07.998l-.499.053c-.1 0-.174.052-.174.157v.551l.05.053s2.042-.053 2.74-.053c.747 0 2.316.053 2.316.053l.025-.053v-.551c0-.105-.075-.131-.15-.157l-.274-.053Zm12.38-.998c0 .578.25.919 1.047.998l.523.053c.074 0 .15.052.15.157v.551l-.026.053s-1.893-.053-2.665-.053c-.697 0-2.64.053-2.64.053l-.05-.053v-.551c0-.105.075-.157.175-.157l.498-.053c.822-.079 1.071-.499 1.071-.998v-8.74c0-.577-.299-.737-1.07-.814l-.499-.054c-.1 0-.174-.024-.174-.105V5.54l.025-.052s1.967.052 2.74.052c.672 0 2.59-.052 2.59-.052l.024.052v.578c0 .078-.05.13-.15.13l-.522.054c-.772.078-1.046.29-1.046.815v8.741Zm3.888-9.608c1.17.079 1.494.105 1.494.919l.002 8.819c0 .498-.25.735-1.021.84l-.523.078c-.1.027-.15.053-.15.158v.55l.025.053s1.868-.052 2.566-.052c.772 0 2.764.053 2.764.053l.024-.053v-.551c0-.104-.075-.131-.174-.158l-.5-.078c-.797-.13-1.096-.263-1.096-.84v-3.516c.449.209.947.263 1.57.263 3.534 0 4.257-2.467 4.257-4.043 0-1.367-.648-3.203-4.183-3.203-.492 0-1.006.015-1.485.029-.416.012-.805.023-1.13.023-.42 0-1.093-.018-1.656-.032h-.003c-.403-.011-.75-.02-.906-.02l-.05.026v.604c0 .053.025.13.175.13Zm5.03 5.723c-.498 0-1.12-.025-1.618-.236l-.001-4.567c0-.683.299-.92 1.495-.92 1.368 0 2.34.5 2.34 2.757 0 2.02-.72 2.966-2.215 2.966ZM71.24 16.9l.573-.053c.748-.08.997-.315.997-1.128V7.056c0-.669-.168-.685-.94-.756l-.057-.006-.546-.054c-.1 0-.176-.053-.176-.131V5.53l.024-.052s2.192.052 2.642.052c.146 0 .454-.005.83-.012l.586-.011h.003c.729-.014 1.52-.03 1.868-.03 4.16 0 6.202 2.73 6.202 6.222 0 4.594-3.089 5.957-5.852 5.957-1.228 0-2.03-.02-2.645-.035a40.73 40.73 0 0 0-.99-.017c-.748 0-2.641.052-2.641.052l-.025-.052v-.551c-.002-.076.049-.155.147-.155Zm5.555 0c2.739 0 4.285-1.075 4.285-4.752 0-2.729-.574-5.907-4.758-5.907-.971 0-1.594.157-1.594.816v8.662c0 .733.173 1.181 2.067 1.181Zm-7.697-.055c-.796-.08-1.045-.42-1.045-.998l-.002-8.741c0-.526.273-.737 1.046-.815l.523-.053c.098 0 .149-.053.149-.131v-.578l-.024-.052s-1.919.052-2.591.052c-.77 0-2.738-.052-2.738-.052l-.025.052v.605c0 .08.075.105.175.105l.499.054c.771.077 1.07.237 1.07.813v8.741c0 .499-.25.919-1.07.998l-.5.053c-.099 0-.173.052-.173.157v.55l.05.054s1.942-.053 2.64-.053c.771 0 2.664.053 2.664.053l.025-.053v-.551c0-.105-.075-.157-.15-.157l-.523-.053Zm37.833.065.761.054c.105 0 .21.078.21.209v.498l-.053.054s-2.861-.053-3.491-.053c-.683 0-2.363.053-2.363.053l-.054-.053v-.5c0-.13.079-.208.211-.208 1.156-.079 1.811-.29 2.546-1.97l5.826-13.65c.288-.683.499-.947.893-.947.367 0 .499.264.708.789l5.381 14.227c.369 1.025.894 1.417 1.944 1.522l.289.026c.131 0 .262.078.262.21v.498l-.079.053s-2.021-.052-3.045-.052c-.918 0-3.492.052-3.492.052l-.025-.052v-.498c0-.133.052-.211.186-.211l.735-.053c.996-.078 1.366-.395 1.102-1.129l-1.601-4.437h-5.46c-.63 0-.788.105-.918.446l-1.523 3.807c-.263.658.078 1.237 1.05 1.315Zm6.431-6.67-2.546-7.007h-.053L108.137 9.9c-.105.263.078.34.655.34h4.569ZM87.905 7.966v7.468c-.018.743.115 1.212.397 1.406.283.194.818.29 1.608.289.069.067.103.17.103.307 0 .138-.034.24-.103.307l-1.487-.025a91.223 91.223 0 0 0-3.002 0l-1.48.025c-.07-.067-.104-.17-.104-.307 0-.137.034-.24.104-.307.789.001 1.325-.095 1.607-.289.282-.194.415-.663.398-1.406V7.965c.017-.744-.116-1.213-.398-1.407-.282-.194-.818-.29-1.607-.288-.07-.068-.104-.17-.104-.308 0-.137.034-.24.104-.307l1.486.026a91.913 91.913 0 0 0 3.002 0l1.48-.026c.07.068.104.17.104.307 0 .138-.034.24-.103.308-.79-.002-1.325.094-1.608.288-.282.194-.415.663-.397 1.407Zm10.207 4.754v2.714c-.022.743.12 1.212.426 1.406.306.194.91.29 1.809.289.069.067.104.17.104.307a.517.517 0 0 1-.04.217.319.319 0 0 1-.064.09c-.56-.01-1.082-.018-1.567-.025a111.844 111.844 0 0 0-3.301 0l-1.562.025c-.069-.067-.103-.17-.103-.307 0-.137.034-.24.103-.307.9.001 1.503-.095 1.81-.289.306-.194.448-.663.426-1.406v-2.552c.005-.319-.025-.544-.091-.676a3.754 3.754 0 0 0-.393-.572l-3.026-4.115c-.44-.606-.795-.967-1.068-1.081-.273-.115-.637-.17-1.092-.167-.07-.068-.108-.17-.115-.308-.007-.137.024-.24.092-.307.344.01.71.018 1.098.026a68.79 68.79 0 0 0 2.567 0l1.313-.026c.07.068.104.17.104.307 0 .138-.035.24-.104.308-.643.004-1.051.03-1.223.077-.172.047-.117.257.163.63l2.909 4.135c.096.152.18.235.25.25.069.014.153-.057.252-.213l2.743-4.172c.243-.369.255-.578.034-.627-.221-.048-.594-.075-1.118-.08-.069-.067-.103-.166-.103-.298 0-.132.034-.232.103-.298a87.875 87.875 0 0 0 2.098.018c.268 0 .567 0 .896-.002.329-.002.668-.007 1.017-.016.069.066.103.166.103.298 0 .132-.034.231-.103.298-.494.014-.876.058-1.145.132-.269.074-.555.334-.856.78l-2.943 4.303c-.22.302-.346.5-.376.594-.03.094-.04.307-.027.64Z" clip-rule="evenodd"/></svg>
